X:1
T:Ed Yother's Hornpipe #1
R:Hornpipe
M:4/4
C:Ed Yother 2/2018
C:http://edyother.com
L:1/8
K:D
ag | (3fgf ef decd | =cAGB A2 (3ABc | dBG=c AFDF | ABAF G2ag |
(3fgf ef decd | =cAGB A2 (3ABc | dBGB dgae | fgaf g2 :|
|:gf | (3efe ef gege | edBc d2=cB | (3ABA AB =cAFG | AB=c^c d2gf |
(3efe ef gege | edBc d2=cB | (3ABA AB =cAFD | GBAF G2 :|

%%newpage
%%begintext
Waltzes
%%endtext

